X: 36715
T: Sheep In The Boat, The
R: jig
M: 6/8
K: Ddorian
|:ADE FDE|~E3 cde|dcA AGE|GED EDC|
ADE F2 G|EDE c2 e|dcA AGE|GED D3:|
A2 d dcd|ede c2 e|dcA AGE|GED EFG|
Add dcd|ede cde|dcA AGE|GED DE/F/G|
A2 d dcd|ede c2 e|dcA AGE|GED EDC|
A,DE FED|~E3 cde|dcA AGE|GED D3||

